dist/svg/static/time-short-small.svg

<svg xmlns="http://www.w3.org/2000/svg" width="24" height="24" viewBox="0 0 24 24"><g fill="none" stroke="currentColor" stroke-miterlimit="10"><path d="M11.5 20v1M20 16.5h1M16.5 19v1M2 16.5h1M3 6.5H2M6.5 20v-1M6.5 3V2M1 11.5h1M12 1.5c5.1 0 9.09 3.898 9.39 8.998M11 12l5-5"/><path d="M23.605 8.4l-2.2 2.1-2.5-1.7"/></g></svg>

<?xml version="1.0" encoding="UTF-8" standalone="no"?>
<svg width="24px" height="24px" viewBox="0 0 24 24" version="1.1" xmlns="http://www.w3.org/2000/svg" xmlns:xlink="http://www.w3.org/1999/xlink">
    <!-- Generator: sketchtool 46.2 (44496) - http://www.bohemiancoding.com/sketch -->
    <title>time-short-small</title>
    <desc>Created with sketchtool.</desc>
    <defs></defs>
    <g id="icons-published" stroke="none" stroke-width="1" fill="none" fill-rule="evenodd">
        <g id="briefing" transform="translate(-2948.000000, -2074.000000)"></g>
        <g id="time-short-small" stroke="#000000">
            <path d="M11.5,20 L11.5,21 M20,16.5 L21,16.5 M16.5,19 L16.5,20 M2,16.5 L3,16.5 M3,6.5 L2,6.5 M6.5,20 L6.5,19 M6.5,3 L6.5,2 M1,11.5 L2,11.5 M12,1.5 C17.1,1.5 21.1,5.4 21.4,10.5 M11,12 L16,7" id="Shape"></path>
            <polyline id="Shape" points="23.6 8.4 21.4 10.5 18.9 8.8"></polyline>
        </g>
    </g>
</svg>
